X: 138
T:Pybcorn: Can Scoswas
M:2/4
L:1/8
R:polka
Z:bil@blueskiesink.com
K:G
G&gt;B d&gt;B|A&gt;F D&gt;D|E&gt;G B&gt;G|F&gt;D B,&gt;B,|!
E&gt;G B&gt;e|d&gt;B G&gt;A|B&gt;c A&gt;B|G3 D:|!
d&gt;B G&gt;B|A2 A&gt;A|B&gt;G E&gt;G|F3 F|!
E&gt;G B&gt;e|d&gt;B B&gt;A|B&gt;E E&gt;D|E3 z:|!
<end>
<start>
